build/img/step4.svg

<svg width="132" height="143" viewBox="0 0 132 143" fill="none" xmlns="http://www.w3.org/2000/svg">
<path fill-rule="evenodd" clip-rule="evenodd" d="M66.5952 3.5C34.6638 3.5 8.28462 26.9157 4.00829 57.3086H0.979492C5.27647 25.2313 33.0285 0.5 66.5952 0.5C86.2962 0.5 103.994 9.01934 116.123 22.5431H112.12V22.6527C100.626 10.8473 84.4819 3.5 66.5952 3.5ZM119.644 32.0246C124.269 39.0748 127.497 47.1044 128.939 55.7284H131.979C130.616 47.1612 127.575 39.1469 123.199 32.0246H119.644ZM1.21097 76.2716H4.25146C4.88929 80.0863 5.87645 83.7847 7.17941 87.3334H3.99166C2.75363 83.7751 1.81668 80.0779 1.21097 76.2716ZM9.05077 98.3952C20.4464 118.173 41.954 131.5 66.5952 131.5C98.4886 131.5 125.133 109.173 131.396 79.4321H128.325C122.113 107.485 96.8454 128.5 66.5952 128.5C43.6787 128.5 23.622 116.44 12.5429 98.3952H9.05077Z" fill="#F7D473"/>
<ellipse cx="97.0455" cy="123.977" rx="18.8882" ry="19" fill="#F7D473"/>
<path d="M92.8891 126.751V125.491L97.7191 119.177H99.6651L94.9051 125.491L93.9951 125.211H101.765V126.751H92.8891ZM98.2651 128.977V126.751L98.3211 125.211V123.237H100.029V128.977H98.2651Z" fill="#111111"/>
<g clip-path="url(#clip0_335_10)">
<path d="M101.307 86.7564L93.4948 75.0684L94.8708 74.6304C95.1628 74.5464 95.3814 74.3691 95.5268 74.0984C95.6721 73.8278 95.6828 73.5671 95.5588 73.3164V73.1904L93.1828 67.0644L98.0588 62.5024C98.2668 62.2944 98.3814 62.0444 98.4028 61.7524C98.4241 61.4604 98.3301 61.2104 98.1208 61.0024C98.0794 61.0024 98.0588 60.9918 98.0588 60.9704V60.9384L93.1828 56.4384L95.5588 50.2504C95.6841 49.9584 95.6841 49.6771 95.5588 49.4064C95.4334 49.1358 95.2248 48.9584 94.9328 48.8744H94.8708L88.4948 46.8744L87.9328 40.2484C87.8914 40.1231 87.8394 39.9878 87.7768 39.8424C87.7141 39.6971 87.6201 39.5824 87.4948 39.4984C87.4108 39.4144 87.2961 39.3518 87.1508 39.3104C87.0054 39.2691 86.8494 39.2691 86.6828 39.3104L79.9948 40.2484L76.6188 34.4984C76.4521 34.2478 76.2228 34.0918 75.9308 34.0304C75.6388 33.9691 75.3681 34.0004 75.1188 34.1244V34.1864L69.4928 37.8744L63.8668 34.1864C63.6161 34.0198 63.3554 33.9678 63.0848 34.0304C62.8141 34.0931 62.5954 34.2491 62.4288 34.4984H62.3668L58.9908 40.2484L52.3028 39.3104C52.0108 39.2691 51.7401 39.3318 51.4908 39.4984C51.2414 39.6651 51.1161 39.8944 51.1148 40.1864L51.0528 40.2484L50.4908 46.8744L44.1148 48.8744C43.8228 48.9584 43.6141 49.1251 43.4888 49.3744C43.3634 49.6238 43.3428 49.8944 43.4268 50.1864V50.2484L45.8028 56.4364L40.9268 60.9364C40.7188 61.1444 40.6041 61.3944 40.5828 61.6864C40.5614 61.9784 40.6554 62.2284 40.8648 62.4364L40.9268 62.4984L45.8028 67.0604L43.4268 73.1864C43.3014 73.4784 43.3014 73.7598 43.4268 74.0304C43.5521 74.3011 43.7608 74.4991 44.0528 74.6244H44.1148L45.4908 75.0624L37.6788 87.8124C37.5121 88.0631 37.4601 88.3338 37.5228 88.6244C37.5854 88.9151 37.7414 89.1444 37.9908 89.3124C38.1161 89.3964 38.2414 89.4484 38.3668 89.4684C38.4921 89.4884 38.6174 89.4778 38.7428 89.4364L49.4308 87.4984L51.3688 97.1244C51.4101 97.3324 51.5141 97.5198 51.6808 97.6864C51.8474 97.8531 52.0348 97.9571 52.2428 97.9984H52.4308C52.5974 97.9984 52.7641 97.9564 52.9308 97.8724C53.0974 97.7884 53.2228 97.6631 53.3068 97.4964L60.8068 86.3084L62.3688 88.9344C62.4528 89.0598 62.5568 89.1638 62.6808 89.2464C62.8048 89.3291 62.9301 89.3918 63.0568 89.4344H63.3068C63.4321 89.4344 63.5361 89.4238 63.6188 89.4024C63.7014 89.3811 63.7848 89.3498 63.8688 89.3084L69.4948 85.6204L75.1208 89.3084C75.3714 89.4751 75.6321 89.5271 75.9028 89.4644C76.1734 89.4018 76.3921 89.2458 76.5588 88.9964L76.6208 88.9344L78.1828 86.3084L85.6828 97.4964C85.7668 97.6631 85.8921 97.7884 86.0588 97.8724C86.2254 97.9564 86.3921 97.9984 86.5588 97.9984H86.7468C86.9548 97.9571 87.1421 97.8531 87.3088 97.6864C87.4754 97.5198 87.5794 97.3324 87.6208 97.1244L89.5588 87.4364L100.309 88.3744C100.601 88.4158 100.861 88.3431 101.091 88.1564C101.32 87.9698 101.455 87.7304 101.497 87.4384C101.497 87.3131 101.486 87.1878 101.465 87.0624C101.443 86.9371 101.391 86.8331 101.309 86.7504L101.307 86.7564ZM52.9948 94.1944L51.3688 86.0684C51.2848 85.7764 51.1288 85.5471 50.9008 85.3804C50.6728 85.2138 50.4121 85.1511 50.1188 85.1924L40.7428 86.9424L47.6188 75.6924L50.4948 76.6304L51.0568 83.1924C51.0981 83.3591 51.1501 83.5051 51.2128 83.6304C51.2754 83.7558 51.3694 83.8598 51.4948 83.9424C51.5788 84.0264 51.6934 84.0891 51.8388 84.1304C51.9841 84.1718 52.1401 84.1924 52.3068 84.1924L58.9948 83.2544L59.5568 84.2544L52.9948 94.1944ZM78.5568 81.5684L75.3688 86.8804L70.0568 83.4424C69.8901 83.3171 69.7028 83.2544 69.4948 83.2544C69.2868 83.2544 69.0994 83.3171 68.9328 83.4424L63.6208 86.8804L60.4328 81.5684C60.3488 81.4018 60.2234 81.2664 60.0568 81.1624C59.8901 81.0584 59.7028 81.0064 59.4948 81.0064H59.4628C59.4628 81.0064 59.4314 81.0271 59.3688 81.0684L53.1188 81.8804L52.5568 75.7544C52.5568 75.5038 52.4841 75.2951 52.3388 75.1284C52.1934 74.9618 52.0161 74.8578 51.8068 74.8164L45.8068 72.9404L48.0568 67.1284C48.1408 66.9618 48.1614 66.7638 48.1188 66.5344C48.0761 66.3051 47.9721 66.1278 47.8068 66.0024L43.2448 61.7524L47.8068 57.5024C47.9734 57.3358 48.0774 57.1484 48.1188 56.9404C48.1601 56.7324 48.1394 56.5238 48.0568 56.3144L45.8068 50.5644L51.8688 48.6884C52.0768 48.6044 52.2434 48.4791 52.3688 48.3124C52.4941 48.1458 52.5774 47.9584 52.6188 47.7504L53.1188 41.5624L59.3688 42.4384C59.5768 42.4798 59.7854 42.4484 59.9948 42.3444C60.2041 42.2404 60.3501 42.1051 60.4328 41.9384L63.6828 36.5624L68.9328 40.0624C69.0994 40.1464 69.2868 40.1884 69.4948 40.1884C69.7028 40.1884 69.8901 40.1464 70.0568 40.0624L75.3688 36.5624L78.5568 41.9384C78.6821 42.1051 78.8381 42.2404 79.0248 42.3444C79.2114 42.4484 79.4094 42.4798 79.6188 42.4384L85.8688 41.5624L86.4308 47.7504C86.4308 47.9584 86.5034 48.1458 86.6488 48.3124C86.7941 48.4791 86.9714 48.6044 87.1808 48.6884L93.1808 50.5644L90.9308 56.3144C90.8468 56.5224 90.8261 56.7311 90.8688 56.9404C90.9114 57.1498 91.0154 57.3371 91.1808 57.5024L95.7428 61.7524L91.1808 66.0024C91.0141 66.1278 90.9101 66.3051 90.8688 66.5344C90.8274 66.7638 90.8481 66.9618 90.9308 67.1284L93.1808 72.9404L87.1188 74.8164C86.9521 74.8578 86.7961 74.9618 86.6508 75.1284C86.5054 75.2951 86.4328 75.5038 86.4328 75.7544L85.8708 81.8804L79.6208 81.0684C79.4128 81.0271 79.2148 81.0478 79.0268 81.1304C78.8388 81.2131 78.6808 81.3591 78.5568 81.5684ZM88.8068 85.1944C88.5148 85.1944 88.2648 85.2671 88.0568 85.4124C87.8488 85.5578 87.7028 85.7764 87.6188 86.0684L85.9928 94.1944L79.4308 84.2564L79.9928 83.2564L86.6808 84.1944C86.9728 84.2358 87.2434 84.1631 87.4928 83.9764C87.7421 83.7898 87.8881 83.5504 87.9308 83.2584V83.1964L88.4928 76.6344L91.3688 75.6964L98.3068 86.0724L88.8068 85.1944ZM85.4948 56.3824C85.4948 55.5078 85.1821 54.7578 84.5568 54.1324C83.9314 53.5071 83.1814 53.1944 82.3068 53.1944H74.8068V48.9444C74.8068 47.4858 74.2861 46.2358 73.2448 45.1944C72.2034 44.1531 70.9534 43.6324 69.4948 43.6324C69.2028 43.6324 68.9528 43.7364 68.7448 43.9444C68.5368 44.1524 68.4328 44.4024 68.4328 44.6944V49.7564L66.4948 53.5684L63.0568 56.3184C63.0568 56.0678 62.9528 55.8384 62.7448 55.6304C62.5368 55.4224 62.3074 55.3184 62.0568 55.3184H54.5568C54.2648 55.3184 54.0148 55.4224 53.8068 55.6304C53.5988 55.8384 53.4948 56.0884 53.4948 56.3804V72.3804C53.4948 72.6724 53.5988 72.9224 53.8068 73.1304C54.0148 73.3384 54.2648 73.4424 54.5568 73.4424H62.0568C62.3488 73.4424 62.5988 73.3384 62.8068 73.1304C63.0148 72.9224 63.1188 72.6724 63.1188 72.3804H79.1188C79.9934 72.3804 80.7434 72.0678 81.3688 71.4424C81.9941 70.8171 82.3068 70.0671 82.3068 69.1924C82.3068 68.9418 82.2648 68.6811 82.1808 68.4104C82.0968 68.1398 81.9928 67.8791 81.8688 67.6284C81.9528 67.5871 82.0468 67.5244 82.1508 67.4404C82.2548 67.3564 82.3488 67.2731 82.4328 67.1904C82.9328 66.6904 83.2348 66.0864 83.3388 65.3784C83.4428 64.6704 83.3074 64.0038 82.9328 63.3784C83.0168 63.2944 83.1108 63.2218 83.2148 63.1604C83.3188 63.0991 83.4128 63.0264 83.4968 62.9424C83.9968 62.4424 84.2988 61.8384 84.4028 61.1304C84.5068 60.4224 84.3714 59.7558 83.9968 59.1304C84.0808 59.0464 84.1748 58.9738 84.2788 58.9124C84.3828 58.8511 84.4768 58.7784 84.5608 58.6944C84.8528 58.4024 85.0821 58.0584 85.2488 57.6624C85.4154 57.2664 85.4988 56.8391 85.4988 56.3804L85.4948 56.3824ZM60.9328 71.3184H55.6208V57.4424H60.9328V71.3184ZM83.0568 57.1944C82.9314 57.2784 82.8061 57.3511 82.6808 57.4124C82.5554 57.4738 82.4301 57.4844 82.3048 57.4444H78.0548V59.6324H81.2428C81.5348 59.6324 81.7848 59.7364 81.9928 59.9444C82.2008 60.1524 82.3048 60.4024 82.3048 60.6944C82.3048 60.8198 82.2734 60.9451 82.2108 61.0704C82.1481 61.1958 82.0754 61.3211 81.9928 61.4464C81.8674 61.5304 81.7421 61.6031 81.6168 61.6644C81.4914 61.7258 81.3661 61.7571 81.2408 61.7584H76.9288V63.8844H80.1788C80.4708 63.8844 80.7208 63.9884 80.9288 64.1964C81.1368 64.4044 81.2408 64.6544 81.2408 64.9464C81.2408 65.0718 81.2094 65.2071 81.1468 65.3524C81.0841 65.4978 81.0114 65.6124 80.9288 65.6964C80.8034 65.7804 80.6781 65.8531 80.5528 65.9144C80.4274 65.9758 80.3021 66.0071 80.1768 66.0084H75.8648V68.1344H79.1148C79.4068 68.1344 79.6568 68.2384 79.8648 68.4464C80.0728 68.6544 80.1768 68.9044 80.1768 69.1964C80.1768 69.3631 80.1454 69.5091 80.0828 69.6344C80.0201 69.7598 79.9261 69.8638 79.8008 69.9464C79.7168 70.0718 79.6128 70.1551 79.4888 70.1964C79.3648 70.2378 79.2394 70.2584 79.1128 70.2584H63.1128V59.0704L68.0508 55.1324C68.0921 55.0484 68.1341 54.9858 68.1768 54.9444C68.2194 54.9031 68.2614 54.8404 68.3028 54.7564L70.4288 50.5064C70.4701 50.4224 70.5014 50.3391 70.5228 50.2564C70.5441 50.1738 70.5548 50.0904 70.5548 50.0064V45.9444C71.1801 46.1524 71.6908 46.5378 72.0868 47.1004C72.4828 47.6631 72.6808 48.2778 72.6808 48.9444V54.2564C72.6808 54.5484 72.7848 54.7984 72.9928 55.0064C73.2008 55.2144 73.4508 55.3184 73.7428 55.3184H82.3048C82.5968 55.3184 82.8468 55.4224 83.0548 55.6304C83.2628 55.8384 83.3668 56.0884 83.3668 56.3804C83.3668 56.5471 83.3354 56.6931 83.2728 56.8184C83.2101 56.9438 83.1394 57.0691 83.0568 57.1944Z" fill="white"/>
</g>
<defs>
<clipPath id="clip0_335_10">
<rect width="64" height="64" fill="white" transform="translate(37.4971 34)"/>
</clipPath>
</defs>
</svg>

<svg width="132" height="143" fill="none" xmlns="http://www.w3.org/2000/svg"><path fill-rule="evenodd" clip-rule="evenodd" d="M66.595 3.5c-31.931 0-58.31 23.416-62.587 53.809H.98C5.276 25.23 33.03.5 66.595.5c19.701 0 37.399 8.52 49.528 22.043h-4.003v.11C100.626 10.847 84.482 3.5 66.595 3.5Zm53.049 28.525a61.738 61.738 0 0 1 9.295 23.703h3.04a64.63 64.63 0 0 0-8.78-23.703h-3.555ZM1.211 76.272h3.04A61.513 61.513 0 0 0 7.18 87.333H3.992A64.493 64.493 0 0 1 1.21 76.272Zm7.84 22.123C20.446 118.173 41.954 131.5 66.595 131.5c31.894 0 58.538-22.327 64.801-52.068h-3.071c-6.212 28.053-31.48 49.068-61.73 49.068-22.916 0-42.973-12.06-54.052-30.105H9.05Z" fill="#F7D473"/><ellipse cx="97.046" cy="123.977" rx="18.888" ry="19" fill="#F7D473"/><path d="M92.89 126.751v-1.26l4.83-6.314h1.945l-4.76 6.314-.91-.28h7.77v1.54h-8.876Zm5.375 2.226v-2.226l.056-1.54v-1.974h1.708v5.74h-1.764Z" fill="#111"/><g clip-path="url(#a)"><path d="m101.307 86.756-7.812-11.688 1.376-.438c.292-.084.51-.26.656-.532.145-.27.156-.53.032-.782v-.126l-2.376-6.126 4.876-4.562c.208-.208.322-.458.344-.75a.918.918 0 0 0-.282-.75c-.042 0-.062-.01-.062-.032v-.032l-4.876-4.5 2.376-6.188a.994.994 0 0 0 0-.844.946.946 0 0 0-.626-.532h-.062l-6.376-2-.562-6.626a5.004 5.004 0 0 0-.156-.406.772.772 0 0 0-.282-.344.777.777 0 0 0-.344-.188.898.898 0 0 0-.468 0l-6.688.938-3.376-5.75a1.06 1.06 0 0 0-.688-.468 1.214 1.214 0 0 0-.812.094v.062l-5.626 3.688-5.626-3.688a.97.97 0 0 0-.782-.156c-.27.063-.49.22-.656.468h-.062l-3.376 5.75-6.688-.938a1.131 1.131 0 0 0-.812.188.79.79 0 0 0-.376.688l-.062.062-.562 6.626-6.376 2a.96.96 0 0 0-.626.5c-.126.25-.146.52-.062.812v.062l2.376 6.188-4.876 4.5a1.147 1.147 0 0 0-.344.75.917.917 0 0 0 .282.75l.062.062 4.876 4.562-2.376 6.126a.993.993 0 0 0 0 .844c.125.271.334.47.626.594h.062l1.376.438-7.812 12.75c-.167.251-.219.522-.156.812.062.291.218.52.468.688.125.084.25.136.376.156.125.02.25.01.376-.032l10.688-1.938 1.938 9.626c.041.208.145.396.312.562.166.167.354.271.562.312h.188c.166 0 .333-.042.5-.126a.828.828 0 0 0 .376-.376l7.5-11.188 1.562 2.626c.084.126.188.23.312.312.124.083.25.146.376.188h.25c.125 0 .23-.01.312-.032a1.3 1.3 0 0 0 .25-.094l5.626-3.688 5.626 3.688c.25.167.511.22.782.156.27-.062.49-.218.656-.468l.062-.062 1.562-2.626 7.5 11.188c.084.167.21.292.376.376.166.084.333.126.5.126h.188c.208-.04.395-.145.562-.312.166-.166.27-.354.312-.562l1.938-9.688 10.75.938a.974.974 0 0 0 .782-.218c.229-.186.364-.426.406-.718 0-.125-.011-.25-.032-.376a.571.571 0 0 0-.156-.312l-.002.006Zm-48.312 7.438-1.626-8.126a1.253 1.253 0 0 0-.468-.688 1.032 1.032 0 0 0-.782-.188l-9.376 1.75 6.876-11.25 2.876.938.562 6.562c.041.167.093.313.156.438.062.126.156.23.282.312a.775.775 0 0 0 .344.188c.145.042.301.062.468.062l6.688-.938.562 1-6.562 9.94Zm25.562-12.626-3.188 5.312-5.312-3.438a.912.912 0 0 0-.562-.188.912.912 0 0 0-.562.188L63.62 86.88l-3.188-5.312a1.04 1.04 0 0 0-.938-.562h-.032l-.094.062-6.25.812-.562-6.126c0-.25-.073-.459-.218-.626a.93.93 0 0 0-.532-.312l-6-1.876 2.25-5.812c.084-.166.104-.364.062-.594a.83.83 0 0 0-.312-.532l-4.562-4.25 4.562-4.25c.166-.166.27-.354.312-.562.041-.208.02-.416-.062-.626l-2.25-5.75 6.062-1.876c.208-.084.374-.209.5-.376.125-.166.208-.354.25-.562l.5-6.188 6.25.876c.208.042.416.01.626-.094.21-.104.355-.239.438-.406l3.25-5.376 5.25 3.5c.166.084.354.126.562.126.208 0 .395-.042.562-.126l5.312-3.5 3.188 5.376c.125.167.281.302.468.406a.847.847 0 0 0 .594.094l6.25-.876.562 6.188c0 .208.072.396.218.562.145.167.322.292.532.376l6 1.876-2.25 5.75a1.069 1.069 0 0 0-.062.626c.042.21.146.397.312.562l4.562 4.25-4.562 4.25a.818.818 0 0 0-.312.532.936.936 0 0 0 .062.594l2.25 5.812-6.062 1.876a.926.926 0 0 0-.468.312.918.918 0 0 0-.218.626l-.562 6.126-6.25-.812a.972.972 0 0 0-.594.062 1.033 1.033 0 0 0-.47.438Zm10.25 3.626c-.292 0-.542.073-.75.218-.208.146-.354.364-.438.656l-1.626 8.126-6.562-9.938.562-1 6.688.938c.292.042.562-.03.812-.218.25-.186.395-.426.438-.718v-.062l.562-6.562 2.876-.938 6.938 10.376-9.5-.878Zm-3.312-28.812c0-.874-.313-1.624-.938-2.25-.626-.625-1.376-.938-2.25-.938h-7.5v-4.25c0-1.458-.52-2.708-1.562-3.75-1.042-1.04-2.292-1.562-3.75-1.562-.292 0-.542.104-.75.312a1.023 1.023 0 0 0-.312.75v5.062l-1.938 3.812-3.438 2.75c0-.25-.104-.48-.312-.688-.208-.208-.438-.312-.688-.312h-7.5c-.292 0-.542.104-.75.312a1.023 1.023 0 0 0-.312.75v16c0 .292.104.542.312.75.208.208.458.312.75.312h7.5c.292 0 .542-.104.75-.312.208-.208.312-.458.312-.75h16c.874 0 1.624-.312 2.25-.938.625-.625.938-1.375.938-2.25 0-.25-.042-.51-.126-.782a5.315 5.315 0 0 0-.312-.782 1.56 1.56 0 0 0 .282-.188 3.143 3.143 0 0 0 1.188-2.062 2.95 2.95 0 0 0-.406-2c.084-.084.178-.156.282-.218.104-.06.198-.134.282-.218.5-.5.802-1.104.906-1.812a2.95 2.95 0 0 0-.406-2c.084-.084.178-.156.282-.218.104-.06.198-.134.282-.218.292-.292.521-.636.688-1.032.166-.396.25-.823.25-1.282l-.004.002ZM60.933 71.318H55.62V57.442h5.312v13.876Zm22.124-14.124c-.126.084-.25.157-.376.218a.489.489 0 0 1-.376.032h-4.25v2.188h3.188c.292 0 .542.104.75.312.208.208.312.458.312.75 0 .126-.032.251-.094.376a3.65 3.65 0 0 1-.218.376c-.126.084-.25.157-.376.218a.87.87 0 0 1-.376.094h-4.312v2.126h3.25c.292 0 .542.104.75.312.208.208.312.458.312.75 0 .126-.032.261-.094.406-.063.146-.136.26-.218.344-.126.084-.25.157-.376.218a.87.87 0 0 1-.376.094h-4.312v2.126h3.25c.292 0 .542.104.75.312.208.208.312.458.312.75a.968.968 0 0 1-.094.438.798.798 0 0 1-.282.312.604.604 0 0 1-.312.25 1.18 1.18 0 0 1-.376.062h-16V59.07l4.938-3.938a.682.682 0 0 1 .126-.188.685.685 0 0 0 .126-.188l2.126-4.25c.041-.084.072-.167.094-.25a.998.998 0 0 0 .032-.25v-4.062a2.994 2.994 0 0 1 1.532 1.156c.396.563.594 1.178.594 1.844v5.312c0 .292.104.542.312.75.208.208.458.312.75.312h8.562c.292 0 .542.104.75.312.208.208.312.458.312.75a.968.968 0 0 1-.094.438c-.063.126-.134.251-.216.376Z" fill="#fff"/></g><defs><clipPath id="a"><path fill="#fff" transform="translate(37.497 34)" d="M0 0h64v64H0z"/></clipPath></defs></svg>
